resources/svg/settings-input-hdmi-r.svg

<svg xmlns="http://www.w3.org/2000/svg" viewBox="0 0 24 24" fill="currentColor"><path d="M0 0h24v24H0V0z" fill="none"/><path d="M18 7V4c0-1.1-.9-2-2-2H8c-1.1 0-2 .9-2 2v3c-.55 0-1 .45-1 1v4.7c0 .2.06.39.17.55L8 19v2c0 .55.45 1 1 1h6c.55 0 1-.45 1-1v-2l2.83-5.75c.11-.16.17-.36.17-.55V8c0-.55-.45-1-1-1zm-2 0h-2V5.5c0-.28-.22-.5-.5-.5s-.5.22-.5.5V7h-2V5.5c0-.28-.22-.5-.5-.5s-.5.22-.5.5V7H8V4h8v3z"/></svg>

<svg xmlns="http://www.w3.org/2000/svg" enable-background="new 0 0 24 24" viewBox="0 0 24 24" fill="currentColor"><g><rect fill="none" /></g><g><path d="M18,7V4c0-1.1-0.9-2-2-2H8C6.9,2,6,2.9,6,4v3C5.45,7,5,7.45,5,8v4.7c0,0.2,0.06,0.39,0.17,0.55L8,19v2c0,0.55,0.45,1,1,1h6 c0.55,0,1-0.45,1-1v-2l2.83-5.75C18.94,13.09,19,12.89,19,12.7V8C19,7.45,18.55,7,18,7z M16,7h-2V5.5C14,5.22,13.78,5,13.5,5 S13,5.22,13,5.5V7h-2V5.5C11,5.22,10.78,5,10.5,5S10,5.22,10,5.5V7H8V4h8V7z"/></g></svg>
